assets/svg/icon_feed_deletedpost.svg

<svg width="20" height="20" viewBox="0 0 20 20" fill="none" xmlns="http://www.w3.org/2000/svg">
<path d="M15.7038 12.1663C15.447 12.1663 15.2319 12.374 15.2148 12.6302C15.2135 12.6499 15.2121 12.6705 15.2106 12.6918C15.1827 13.1006 15.129 13.3672 15.0384 13.586C14.7708 14.2317 14.2577 14.7449 13.6119 15.0124C13.2921 15.1449 12.8841 15.1944 12.1057 15.2077L12.086 15.2081C11.8391 15.2124 11.6229 15.2161 11.4432 15.236C11.2501 15.2574 11.0611 15.3006 10.8795 15.4063C10.6994 15.511 10.5695 15.6509 10.4564 15.8061C10.3518 15.9497 10.2443 16.1313 10.1226 16.3369L9.7764 16.922C9.65696 17.1239 9.34868 17.1239 9.22906 16.922L8.88282 16.3369C8.76096 16.1311 8.65361 15.9495 8.54906 15.8061C8.43575 15.6507 8.30608 15.511 8.12599 15.4063C7.9444 15.3006 7.75557 15.2574 7.56226 15.236C7.38254 15.2161 7.16617 15.2124 6.91947 15.2081L6.89975 15.2077C6.12115 15.1944 5.71315 15.1449 5.39352 15.0124C4.74775 14.7449 4.23464 14.2317 3.9671 13.586C3.8765 13.3672 3.82273 13.1006 3.79482 12.6918C3.76673 12.279 3.76636 11.7556 3.76636 11.0269V10.4068C3.76636 9.38276 3.76691 8.64731 3.82143 8.07372C3.87538 7.50702 3.97864 7.14646 4.15482 6.85901C4.37212 6.50441 4.67036 6.20617 5.02496 5.98887C5.3124 5.81268 5.67296 5.70942 6.23966 5.65547C6.72315 5.60952 7.39022 5.60336 8.20115 5.60256C8.45965 5.6023 8.66921 5.39289 8.66921 5.13439C8.66921 4.87589 8.45963 4.66616 8.20113 4.66684C7.39456 4.66897 6.67477 4.6796 6.15129 4.72932C5.5165 4.7896 4.99668 4.91481 4.53864 5.19556C4.05882 5.48951 3.65547 5.89305 3.36133 6.37287C3.08059 6.83111 2.95538 7.35074 2.8951 7.98554C2.83594 8.60843 2.83594 9.38797 2.83594 10.3822V11.044C2.83594 11.7519 2.83594 12.3069 2.86645 12.7551C2.89752 13.2113 2.96189 13.5908 3.10738 13.9419C3.46924 14.8156 4.16357 15.5099 5.03724 15.8718C5.5364 16.0785 6.10496 16.1244 6.88357 16.1378C7.15594 16.1425 7.3284 16.146 7.45975 16.1605C7.58254 16.1741 7.63017 16.194 7.65808 16.2104C7.68747 16.2275 7.72747 16.2585 7.79706 16.354C7.8724 16.4572 7.95743 16.5999 8.09212 16.8279L8.42831 17.3959C8.90813 18.2065 10.097 18.2065 10.5766 17.3959L10.9128 16.8279C11.0477 16.5999 11.1327 16.4572 11.2078 16.354C11.2774 16.2585 11.3174 16.2275 11.3468 16.2104C11.3747 16.1942 11.4224 16.1743 11.5451 16.1605C11.6767 16.146 11.8491 16.1425 12.1213 16.1378C12.8998 16.1244 13.4685 16.0785 13.9677 15.8718C14.8413 15.5099 15.5357 14.8156 15.8975 13.9419C16.043 13.5908 16.1072 13.2113 16.1385 12.7551C16.1445 12.7213 16.1493 12.678 16.1531 12.6303C16.1736 12.3745 15.9604 12.1663 15.7038 12.1663Z" fill="#727689"/>
<path fill-rule="evenodd" clip-rule="evenodd" d="M5.66924 8.42015C5.66924 8.14401 5.8931 7.92015 6.16924 7.92015H6.79423C7.07037 7.92015 7.29423 8.14401 7.29423 8.42015C7.29423 8.69629 7.07037 8.92015 6.79423 8.92015H6.16924C5.8931 8.92015 5.66924 8.69629 5.66924 8.42015Z" fill="#727689"/>
<path fill-rule="evenodd" clip-rule="evenodd" d="M5.66924 10.5035C5.66924 10.2273 5.8931 10.0035 6.16924 10.0035H7.41923C7.69536 10.0035 7.91922 10.2273 7.91922 10.5035C7.91922 10.7796 7.69536 11.0035 7.41923 11.0035H6.16924C5.8931 11.0035 5.66924 10.7796 5.66924 10.5035Z" fill="#727689"/>
<path fill-rule="evenodd" clip-rule="evenodd" d="M5.66924 12.5868C5.66924 12.3107 5.8931 12.0868 6.16924 12.0868H10.3359C10.612 12.0868 10.8359 12.3107 10.8359 12.5868C10.8359 12.863 10.612 13.0868 10.3359 13.0868H6.16924C5.8931 13.0868 5.66924 12.863 5.66924 12.5868Z" fill="#727689"/>
<path fill-rule="evenodd" clip-rule="evenodd" d="M13.6691 4.33301C12.1043 4.33301 10.8358 5.60153 10.8358 7.16634C10.8358 7.76637 11.0223 8.32283 11.3405 8.78092L15.2903 4.84236C14.8309 4.52133 14.272 4.33301 13.6691 4.33301ZM15.9966 5.55024L12.0464 9.48926C12.506 9.81093 13.0655 9.99967 13.6691 9.99967C15.2339 9.99967 16.5024 8.73114 16.5024 7.16634C16.5024 6.56565 16.3155 6.00861 15.9966 5.55024ZM9.83579 7.16634C9.83579 5.04925 11.552 3.33301 13.6691 3.33301C15.7862 3.33301 17.5024 5.04925 17.5024 7.16634C17.5024 9.28343 15.7862 10.9997 13.6691 10.9997C11.552 10.9997 9.83579 9.28343 9.83579 7.16634Z" fill="#727689"/>
</svg>

<svg xmlns="http://www.w3.org/2000/svg" width="20" height="20" fill="none"><path fill="#727689" d="M15.704 12.166a.497.497 0 0 0-.49.464l-.003.062c-.028.409-.082.675-.173.894a2.64 2.64 0 0 1-1.426 1.426c-.32.133-.728.182-1.506.196h-.02c-.247.004-.463.008-.643.028a1.4 1.4 0 0 0-.563.17 1.4 1.4 0 0 0-.424.4 7 7 0 0 0-.333.53l-.347.586a.323.323 0 0 1-.547 0l-.346-.585c-.122-.206-.23-.387-.334-.53a1.4 1.4 0 0 0-.423-.4 1.4 1.4 0 0 0-.564-.171c-.18-.02-.396-.024-.643-.028H6.9c-.778-.014-1.186-.063-1.505-.196a2.64 2.64 0 0 1-1.427-1.426c-.09-.219-.144-.485-.172-.894-.028-.413-.029-.936-.029-1.665v-.62c0-1.024 0-1.76.055-2.333.054-.567.158-.928.334-1.215.217-.355.515-.653.87-.87.287-.176.648-.28 1.215-.334.483-.045 1.15-.052 1.961-.052a.468.468 0 0 0 0-.936c-.806.002-1.526.013-2.05.062-.635.06-1.154.186-1.612.467-.48.294-.884.697-1.178 1.177-.28.458-.406.978-.466 1.613-.06.622-.06 1.402-.06 2.396v.662c0 .708 0 1.263.031 1.711.032.456.096.836.241 1.187a3.57 3.57 0 0 0 1.93 1.93c.5.206 1.068.252 1.847.266.272.004.444.008.576.022.123.014.17.034.198.05.03.017.07.049.14.144.074.103.16.246.294.474l.336.568c.48.81 1.669.81 2.149 0l.336-.568c.135-.228.22-.37.295-.474a.5.5 0 0 1 .139-.144.5.5 0 0 1 .198-.05c.132-.014.304-.018.576-.022.779-.014 1.348-.06 1.847-.266a3.57 3.57 0 0 0 1.93-1.93c.145-.351.21-.73.24-1.187q.009-.052.015-.125c.02-.256-.193-.464-.45-.464"/><path fill="#727689" fill-rule="evenodd" d="M5.67 8.42a.5.5 0 0 1 .5-.5h.624a.5.5 0 0 1 0 1H6.17a.5.5 0 0 1-.5-.5M5.67 10.504a.5.5 0 0 1 .5-.5h1.25a.5.5 0 1 1 0 1H6.17a.5.5 0 0 1-.5-.5M5.67 12.587a.5.5 0 0 1 .5-.5h4.166a.5.5 0 0 1 0 1H6.169a.5.5 0 0 1-.5-.5M13.67 4.333a2.833 2.833 0 0 0-2.33 4.448l3.95-3.939a2.8 2.8 0 0 0-1.62-.509m2.327 1.217-3.95 3.94a2.833 2.833 0 0 0 3.95-3.939M9.836 7.166a3.833 3.833 0 1 1 7.666 0 3.833 3.833 0 0 1-7.666 0" clip-rule="evenodd"/></svg>
